file/fortnite.svg

<svg clip-rule="evenodd" fill-rule="evenodd" stroke-linejoin="round" stroke-miterlimit="1.41421" viewBox="0 0 560 400" xmlns="http://www.w3.org/2000/svg"><path d="m49.4 3483.3c0-493.3 1.2-896.7 2.8-896.7 2.4 0 333.9 61.4 374.5 69.5l21.1 4.1v658.4h252.3v60.2c0 32.9 1.2 118.7 2.8 191.1l2.4 130.9h-128.5-128.9v288.8h148.4c81.7 0 148.4.8 148.4 2 0 4.5 32.5 351.7 34.6 369.2l2.4 19.1h-366.3-366zm6082.6 844.2-324.5-26.8v-810-810l13.4-2c11.8-2 640.1-47.6 652.7-47.2 3.7 0 4.9 43.1 4.9 201.3v201.2h-138.3-138.2v292.8h235.8v349.8h-122-122v231.8l9.4 1.6c4.9 1.2 46.4 2.8 92.3 4.5 46 1.2 105.7 3.3 133.4 4.9l49.6 2.4v433.8l-11-.4c-6.5-.4-157.4-12.6-335.5-27.7zm-2083.2-56.1c4.1-40.7 50.4-653.5 49.6-654.3-.4-.8-60.2 146-133 326.1-72.4 180.1-133.4 329.4-135 332.2-2.4 4.5-114.7-16.3-298.9-55.3l-17.5-3.7v-699-699h362l-2 29.3c-4.1 54.5-19.1 505.1-17.5 522.9 1.2 15.9 13.4-11.8 128.9-290.8 69.9-169.6 129.3-309.9 130.9-312.3 2.4-2.4 59 1.2 154.9 9.4 83.4 7.3 151.7 13.8 151.7 14.2.4.4-1.6 293.6-4.5 651.4-2.8 357.8-5.3 695.8-5.3 751.5l-.4 100.4h-183-183.4zm-2862.8-1.6c-243.2-16.3-377-182.6-419.3-520.1-8.5-69.9-12.2-307.4-6.1-390.4 20.3-269.2 93.1-444.1 222.4-533.1 69.5-47.6 174-73.2 277.3-67.1 117.5 6.5 197.6 39.9 269.6 111.8 59 59 91.1 114.3 122 208.6 43.1 131.8 62.6 328.6 52.9 533.5-11 229.3-45.5 372.1-116.7 481.5-67.9 104.1-175.3 166.3-300.5 174-19.9 1.2-41.1 2.4-46.8 3.3-5.6.4-30-.4-54.8-2zm57.3-319.6c29.7-32.1 42.3-160.2 42.3-434.3 0-337.5-21.1-477.8-67.5-447.7-19.9 13.4-35 78.9-42.3 187.5-5.3 79.3-5.3 442.4 0 518.5 7.7 107.4 21.6 166.7 42.3 181 11.4 8 13.4 7.6 25.2-5zm514-419.7v-740.5h372.9l2.4 51.6c1.6 28.9 4.9 122.4 7.3 208.6s5.7 161.8 7.3 167.9c2 8.5 19.5-46.4 73.2-231.8 39-133.8 72-244.8 73.6-246.4 3.3-3.7 384.7 26.4 388.8 30.5 1.2 1.6-41.1 134.6-93.9 296.4l-96 293.6 20.3 17.9c67.5 59 123.2 172.8 139.1 285.5 6.9 49.2 2.4 171.2-8.1 216.3-40.7 176.9-148.4 314.3-285.9 365.6-59.8 22-54.9 21.6-337.5 23.2l-263.5 1.6zm419.3 389.6c28.9-14.2 52.5-50.8 65.1-101.3 8.5-33.8 7.3-140.7-2-174.9-17.5-64.2-48.4-101.7-94.7-115.9l-9.4-2.4v407.1l13.4-2.8c6.8-1.3 19.4-5.7 27.6-9.8zm487.5 156.9v-189h207.4v-544.9-544.9h390.4v1024.8h211.4v378.1l-8.9 1.6c-8.5 2-784 63.8-795 63.4-4 0-5.3-40.6-5.3-189.1zm1834-589.6v-738.1h402.6v1476.2h-201.3-201.3zm862.1 686.8c-220.4-11.8-403.8-21.6-407.5-21.6-6.9-.4-7.3-12.2-7.3-191.5v-191.1h207.4v-534.7-534.7h394.4v1114.2h219.6v191.1c0 105.3-1.2 190.7-2.8 190.7-2-.4-183.4-10.2-403.8-22.4z" fill-rule="nonzero" transform="matrix(.0559954 0 0 -.0559954 97.2338 395.046)"/></svg>

<?xml version="1.0" encoding="UTF-8" standalone="no"?>
<!DOCTYPE svg PUBLIC "-//W3C//DTD SVG 1.1//EN" "http://www.w3.org/Graphics/SVG/1.1/DTD/svg11.dtd">
<svg width="100%" height="100%" viewBox="0 0 560 400" version="1.1" xmlns="http://www.w3.org/2000/svg" xmlns:xlink="http://www.w3.org/1999/xlink" xml:space="preserve" xmlns:serif="http://www.serif.com/" style="fill-rule:evenodd;clip-rule:evenodd;stroke-linejoin:round;stroke-miterlimit:1.41421;">
    <g id="logosvg_1_" transform="matrix(0.0559954,0,0,-0.0559954,97.2338,395.046)">
        <path d="M49.4,3483.3C49.4,2990 50.6,2586.6 52.2,2586.6C54.6,2586.6 386.1,2648 426.7,2656.1L447.8,2660.2L447.8,3318.6L700.1,3318.6L700.1,3378.8C700.1,3411.7 701.3,3497.5 702.9,3569.9L705.3,3700.8L576.8,3700.8L447.9,3700.8L447.9,3989.6L596.3,3989.6C678,3989.6 744.7,3990.4 744.7,3991.6C744.7,3996.1 777.2,4343.3 779.3,4360.8L781.7,4379.9L415.4,4379.9L49.4,4379.9L49.4,3483.3ZM6132,4327.5L5807.5,4300.7L5807.5,3490.7L5807.5,2680.7L5820.9,2678.7C5832.7,2676.7 6461,2631.1 6473.6,2631.5C6477.3,2631.5 6478.5,2674.6 6478.5,2832.8L6478.5,3034L6340.2,3034L6202,3034L6202,3326.8L6437.8,3326.8L6437.8,3676.6L6315.8,3676.6L6193.8,3676.6L6193.8,3908.4L6203.2,3910C6208.1,3911.2 6249.6,3912.8 6295.5,3914.5C6341.5,3915.7 6401.2,3917.8 6428.9,3919.4L6478.5,3921.8L6478.5,4355.6L6467.5,4355.2C6461,4354.8 6310.1,4342.6 6132,4327.5ZM4048.8,4271.4C4052.9,4230.7 4099.2,3617.9 4098.4,3617.1C4098,3616.3 4038.2,3763.1 3965.4,3943.2C3893,4123.3 3832,4272.6 3830.4,4275.4C3828,4279.9 3715.7,4259.1 3531.5,4220.1L3514,4216.4L3514,3517.4L3514,2818.4L3876,2818.4L3874,2847.7C3869.9,2902.2 3854.9,3352.8 3856.5,3370.6C3857.7,3386.5 3869.9,3358.8 3985.4,3079.8C4055.3,2910.2 4114.7,2769.9 4116.3,2767.5C4118.7,2765.1 4175.3,2768.7 4271.2,2776.9C4354.6,2784.2 4422.9,2790.7 4422.9,2791.1C4423.3,2791.5 4421.3,3084.7 4418.4,3442.5C4415.6,3800.3 4413.1,4138.3 4413.1,4194L4412.7,4294.4L4229.7,4294.4L4046.3,4294.4L4048.8,4271.4ZM1186,4269.8C942.8,4253.5 809,4087.2 766.7,3749.7C758.2,3679.8 754.5,3442.3 760.6,3359.3C780.9,3090.1 853.7,2915.2 983,2826.2C1052.5,2778.6 1157,2753 1260.3,2759.1C1377.8,2765.6 1457.9,2799 1529.9,2870.9C1588.9,2929.9 1621,2985.2 1651.9,3079.5C1695,3211.3 1714.5,3408.1 1704.8,3613C1693.8,3842.3 1659.3,3985.1 1588.1,4094.5C1520.2,4198.6 1412.8,4260.8 1287.6,4268.5C1267.7,4269.7 1246.5,4270.9 1240.8,4271.8C1235.2,4272.2 1210.8,4271.4 1186,4269.8ZM1243.3,3950.2C1273,3918.1 1285.6,3790 1285.6,3515.9C1285.6,3178.4 1264.5,3038.1 1218.1,3068.2C1198.2,3081.6 1183.1,3147.1 1175.8,3255.7C1170.5,3335 1170.5,3698.1 1175.8,3774.2C1183.5,3881.6 1197.4,3940.9 1218.1,3955.2C1229.5,3963.2 1231.5,3962.8 1243.3,3950.2ZM1757.3,3530.5L1757.3,2790L2130.2,2790L2132.6,2841.6C2134.2,2870.5 2137.5,2964 2139.9,3050.2C2142.3,3136.4 2145.6,3212 2147.2,3218.1C2149.2,3226.6 2166.7,3171.7 2220.4,2986.3C2259.4,2852.5 2292.4,2741.5 2294,2739.9C2297.3,2736.2 2678.7,2766.3 2682.8,2770.4C2684,2772 2641.7,2905 2588.9,3066.8L2492.9,3360.4L2513.2,3378.3C2580.7,3437.3 2636.4,3551.1 2652.3,3663.8C2659.2,3713 2654.7,3835 2644.2,3880.1C2603.5,4057 2495.8,4194.4 2358.3,4245.7C2298.5,4267.7 2303.4,4267.3 2020.8,4268.9L1757.3,4270.5L1757.3,3530.5ZM2176.6,3920.1C2205.5,3905.9 2229.1,3869.3 2241.7,3818.8C2250.2,3785 2249,3678.1 2239.7,3643.9C2222.2,3579.7 2191.3,3542.2 2145,3528L2135.6,3525.6L2135.6,3932.7L2149,3929.9C2155.8,3928.6 2168.4,3924.2 2176.6,3920.1ZM2664.1,4077L2664.1,3888L2871.5,3888L2871.5,3343.1L2871.5,2798.2L3261.9,2798.2L3261.9,3823L3473.3,3823L3473.3,4201.1L3464.4,4202.7C3455.9,4204.7 2680.4,4266.5 2669.4,4266.1C2665.4,4266.1 2664.1,4225.5 2664.1,4077ZM4498.1,3487.4L4498.1,2749.3L4900.7,2749.3L4900.7,4225.5L4699.4,4225.5L4498.1,4225.5L4498.1,3487.4ZM5360.2,4174.2C5139.8,4162.4 4956.4,4152.6 4952.7,4152.6C4945.8,4152.2 4945.4,4140.4 4945.4,3961.1L4945.4,3770L5152.8,3770L5152.8,3235.3L5152.8,2700.6L5547.2,2700.6L5547.2,3814.8L5766.8,3814.8L5766.8,4005.9C5766.8,4111.2 5765.6,4196.6 5764,4196.6C5762,4196.2 5580.6,4186.4 5360.2,4174.2Z" style="fill-rule:nonzero;"/>
    </g>
</svg>
